assets/icons/functional/design/selection-all.svg

<svg width="32" height="32" viewBox="0 0 32 32" fill="none" xmlns="http://www.w3.org/2000/svg"><g id="Icon-SelectionAll"><g clip-path="url(#clip0_8_397)"><g id="size=md (32px)"><g id="SelectionAll"><path id="Vector" d="M18 5H14" stroke="#101828" stroke-width="2" stroke-linecap="round" stroke-linejoin="round"/><path id="Vector_2" d="M14 27H18" stroke="#101828" stroke-width="2" stroke-linecap="round" stroke-linejoin="round"/><path id="Vector_3" d="M23 5H26C26.2652 5 26.5196 5.10536 26.7071 5.29289C26.8946 5.48043 27 5.73478 27 6V9" stroke="#101828" stroke-width="2" stroke-linecap="round" stroke-linejoin="round"/><path id="Vector_4" d="M27 18V14" stroke="#101828" stroke-width="2" stroke-linecap="round" stroke-linejoin="round"/><path id="Vector_5" d="M23 27H26C26.2652 27 26.5196 26.8946 26.7071 26.7071C26.8946 26.5196 27 26.2652 27 26V23" stroke="#101828" stroke-width="2" stroke-linecap="round" stroke-linejoin="round"/><path id="Vector_6" d="M5 14V18" stroke="#101828" stroke-width="2" stroke-linecap="round" stroke-linejoin="round"/><path id="Vector_7" d="M9 27H6C5.73478 27 5.48043 26.8946 5.29289 26.7071C5.10536 26.5196 5 26.2652 5 26V23" stroke="#101828" stroke-width="2" stroke-linecap="round" stroke-linejoin="round"/><path id="Vector_8" d="M9 5H6C5.73478 5 5.48043 5.10536 5.29289 5.29289C5.10536 5.48043 5 5.73478 5 6V9" stroke="#101828" stroke-width="2" stroke-linecap="round" stroke-linejoin="round"/><path id="Vector_9" d="M22 10H10V22H22V10Z" stroke="#101828" stroke-width="2" stroke-linecap="round" stroke-linejoin="round"/></g></g></g></g><defs><clipPath id="clip0_8_397"><rect width="32" height="32" rx="5" fill="white"/></clipPath></defs></svg>

<svg xmlns="http://www.w3.org/2000/svg" width="32" height="32" fill="none"><path stroke="#101828" stroke-linecap="round" stroke-linejoin="round" stroke-width="2" d="M18 5h-4m0 22h4m5-22h3a1 1 0 0 1 1 1v3m0 9v-4m-4 13h3a1 1 0 0 0 1-1v-3M5 14v4m4 9H6a1 1 0 0 1-1-1v-3M9 5H6a1 1 0 0 0-1 1v3m17 1H10v12h12V10Z"/></svg>
